X:2380
T:C'est entre nous, mes jeunes filles - Tour
C:La Godinette
M:4/4
L:1/4
K:G
AG/F/ EB|BB AG|AG/F/ EB|BB AG:|\
|:EG/A/ BB|ee d/c/B|BA/G/ EA/B/|cB A2:|


